static/img/kroki/27aee22f41d9b05f440a27b9a72ae1d2.svg

<?xml version="1.0" encoding="us-ascii" standalone="no"?><svg xmlns="http://www.w3.org/2000/svg" xmlns:xlink="http://www.w3.org/1999/xlink" contentStyleType="text/css" height="895px" preserveAspectRatio="none" style="width:381px;height:895px;" version="1.1" viewBox="0 0 381 895" width="381px" zoomAndPan="magnify"><defs/><g><!--class azure_compute_virtual_machine_size--><g id="elem_azure_compute_virtual_machine_size"><rect codeLine="23" fill="#3D176E" height="39.7891" id="azure_compute_virtual_machine_size" rx="2.5" ry="2.5" style="stroke:#000D19;stroke-width:0.5;" width="355" x="7" y="849.73"/><ellipse cx="22" cy="869.6245" fill="#ADD1B2" rx="11" ry="11" style="stroke:#181818;stroke-width:1.0;"/><path d="M24.9688,875.2652 Q24.3906,875.562 23.75,875.7027 Q23.1094,875.8589 22.4063,875.8589 Q19.9063,875.8589 18.5781,874.2183 Q17.2656,872.562 17.2656,869.437 Q17.2656,866.312 18.5781,864.6558 Q19.9063,862.9995 22.4063,862.9995 Q23.1094,862.9995 23.75,863.1558 Q24.4063,863.312 24.9688,863.6089 L24.9688,866.3277 Q24.3438,865.7495 23.75,865.4839 Q23.1563,865.2027 22.5313,865.2027 Q21.1875,865.2027 20.5,866.2808 Q19.8125,867.3433 19.8125,869.437 Q19.8125,871.5308 20.5,872.6089 Q21.1875,873.6714 22.5313,873.6714 Q23.1563,873.6714 23.75,873.4058 Q24.3438,873.1245 24.9688,872.5464 L24.9688,875.2652 Z " fill="#000000"/><text fill="#D9B8FF" font-family="Helvetica" font-size="17" lengthAdjust="spacing" textLength="313" x="41" y="875.5098">azure_compute_virtual_machine_size</text></g><!--class instance_type--><g id="elem_instance_type"><rect codeLine="26" fill="#3D176E" height="39.7891" id="instance_type" rx="2.5" ry="2.5" style="stroke:#000D19;stroke-width:0.5;" width="158" x="187.5" y="688.94"/><ellipse cx="202.5" cy="708.8345" fill="#ADD1B2" rx="11" ry="11" style="stroke:#181818;stroke-width:1.0;"/><path d="M205.4688,714.4752 Q204.8906,714.772 204.25,714.9127 Q203.6094,715.0689 202.9063,715.0689 Q200.4063,715.0689 199.0781,713.4283 Q197.7656,711.772 197.7656,708.647 Q197.7656,705.522 199.0781,703.8658 Q200.4063,702.2095 202.9063,702.2095 Q203.6094,702.2095 204.25,702.3658 Q204.9063,702.522 205.4688,702.8189 L205.4688,705.5377 Q204.8438,704.9595 204.25,704.6939 Q203.6563,704.4127 203.0313,704.4127 Q201.6875,704.4127 201,705.4908 Q200.3125,706.5533 200.3125,708.647 Q200.3125,710.7408 201,711.8189 Q201.6875,712.8814 203.0313,712.8814 Q203.6563,712.8814 204.25,712.6158 Q204.8438,712.3345 205.4688,711.7564 L205.4688,714.4752 Z " fill="#000000"/><text fill="#D9B8FF" font-family="Helvetica" font-size="17" lengthAdjust="spacing" textLength="116" x="221.5" y="714.7198">instance_type</text></g><!--class microsoft_resource--><g id="elem_microsoft_resource"><rect codeLine="29" fill="#3D176E" height="39.7891" id="microsoft_resource" rx="2.5" ry="2.5" style="stroke:#000D19;stroke-width:0.5;" width="200" x="23.5" y="267.57"/><ellipse cx="38.5" cy="287.4645" fill="#ADD1B2" rx="11" ry="11" style="stroke:#181818;stroke-width:1.0;"/><path d="M41.4688,293.1052 Q40.8906,293.402 40.25,293.5427 Q39.6094,293.6989 38.9063,293.6989 Q36.4063,293.6989 35.0781,292.0583 Q33.7656,290.402 33.7656,287.277 Q33.7656,284.152 35.0781,282.4958 Q36.4063,280.8395 38.9063,280.8395 Q39.6094,280.8395 40.25,280.9958 Q40.9063,281.152 41.4688,281.4489 L41.4688,284.1677 Q40.8438,283.5895 40.25,283.3239 Q39.6563,283.0427 39.0313,283.0427 Q37.6875,283.0427 37,284.1208 Q36.3125,285.1833 36.3125,287.277 Q36.3125,289.3708 37,290.4489 Q37.6875,291.5114 39.0313,291.5114 Q39.6563,291.5114 40.25,291.2458 Q40.8438,290.9645 41.4688,290.3864 L41.4688,293.1052 Z " fill="#000000"/><text fill="#D9B8FF" font-family="Helvetica" font-size="17" lengthAdjust="spacing" textLength="158" x="57.5" y="293.3498">microsoft_resource</text></g><!--class phantom_resource--><g id="elem_phantom_resource"><rect codeLine="32" fill="#3D176E" height="39.7891" id="phantom_resource" rx="2.5" ry="2.5" style="stroke:#000D19;stroke-width:0.5;" width="198" x="176.5" y="167.79"/><ellipse cx="191.5" cy="187.6845" fill="#ADD1B2" rx="11" ry="11" style="stroke:#181818;stroke-width:1.0;"/><path d="M194.4688,193.3252 Q193.8906,193.622 193.25,193.7627 Q192.6094,193.9189 191.9063,193.9189 Q189.4063,193.9189 188.0781,192.2783 Q186.7656,190.622 186.7656,187.497 Q186.7656,184.372 188.0781,182.7158 Q189.4063,181.0595 191.9063,181.0595 Q192.6094,181.0595 193.25,181.2158 Q193.9063,181.372 194.4688,181.6689 L194.4688,184.3877 Q193.8438,183.8095 193.25,183.5439 Q192.6563,183.2627 192.0313,183.2627 Q190.6875,183.2627 190,184.3408 Q189.3125,185.4033 189.3125,187.497 Q189.3125,189.5908 190,190.6689 Q190.6875,191.7314 192.0313,191.7314 Q192.6563,191.7314 193.25,191.4658 Q193.8438,191.1845 194.4688,190.6064 L194.4688,193.3252 Z " fill="#000000"/><text fill="#D9B8FF" font-family="Helvetica" font-size="17" lengthAdjust="spacing" textLength="156" x="210.5" y="193.5698">phantom_resource</text></g><!--class quota--><g id="elem_quota"><rect codeLine="35" fill="#3D176E" height="39.7891" id="quota" rx="2.5" ry="2.5" style="stroke:#000D19;stroke-width:0.5;" width="90" x="230.5" y="367.36"/><ellipse cx="245.5" cy="387.2545" fill="#ADD1B2" rx="11" ry="11" style="stroke:#181818;stroke-width:1.0;"/><path d="M248.4688,392.8952 Q247.8906,393.192 247.25,393.3327 Q246.6094,393.4889 245.9063,393.4889 Q243.4063,393.4889 242.0781,391.8483 Q240.7656,390.192 240.7656,387.067 Q240.7656,383.942 242.0781,382.2858 Q243.4063,380.6295 245.9063,380.6295 Q246.6094,380.6295 247.25,380.7858 Q247.9063,380.942 248.4688,381.2389 L248.4688,383.9577 Q247.8438,383.3795 247.25,383.1139 Q246.6563,382.8327 246.0313,382.8327 Q244.6875,382.8327 244,383.9108 Q243.3125,384.9733 243.3125,387.067 Q243.3125,389.1608 244,390.2389 Q244.6875,391.3014 246.0313,391.3014 Q246.6563,391.3014 247.25,391.0358 Q247.8438,390.7545 248.4688,390.1764 L248.4688,392.8952 Z " fill="#000000"/><text fill="#D9B8FF" font-family="Helvetica" font-size="17" lengthAdjust="spacing" textLength="48" x="264.5" y="393.1398">quota</text></g><!--class resource--><g id="elem_resource"><rect codeLine="38" fill="#3D176E" height="39.7891" id="resource" rx="2.5" ry="2.5" style="stroke:#000D19;stroke-width:0.5;" width="113" x="102" y="7"/><ellipse cx="117" cy="26.8945" fill="#ADD1B2" rx="11" ry="11" style="stroke:#181818;stroke-width:1.0;"/><path d="M119.9688,32.5352 Q119.3906,32.832 118.75,32.9727 Q118.1094,33.1289 117.4063,33.1289 Q114.9063,33.1289 113.5781,31.4883 Q112.2656,29.832 112.2656,26.707 Q112.2656,23.582 113.5781,21.9258 Q114.9063,20.2695 117.4063,20.2695 Q118.1094,20.2695 118.75,20.4258 Q119.4063,20.582 119.9688,20.8789 L119.9688,23.5977 Q119.3438,23.0195 118.75,22.7539 Q118.1563,22.4727 117.5313,22.4727 Q116.1875,22.4727 115.5,23.5508 Q114.8125,24.6133 114.8125,26.707 Q114.8125,28.8008 115.5,29.8789 Q116.1875,30.9414 117.5313,30.9414 Q118.1563,30.9414 118.75,30.6758 Q119.3438,30.3945 119.9688,29.8164 L119.9688,32.5352 Z " fill="#000000"/><text fill="#D9B8FF" font-family="Helvetica" font-size="17" lengthAdjust="spacing" textLength="71" x="136" y="32.7798">resource</text></g><!--class type--><g id="elem_type"><rect codeLine="41" fill="#3D176E" height="39.7891" id="type" rx="2.5" ry="2.5" style="stroke:#000D19;stroke-width:0.5;" width="79" x="231" y="528.15"/><ellipse cx="246" cy="548.0445" fill="#ADD1B2" rx="11" ry="11" style="stroke:#181818;stroke-width:1.0;"/><path d="M248.9688,553.6852 Q248.3906,553.982 247.75,554.1227 Q247.1094,554.2789 246.4063,554.2789 Q243.9063,554.2789 242.5781,552.6383 Q241.2656,550.982 241.2656,547.857 Q241.2656,544.732 242.5781,543.0758 Q243.9063,541.4195 246.4063,541.4195 Q247.1094,541.4195 247.75,541.5758 Q248.4063,541.732 248.9688,542.0289 L248.9688,544.7477 Q248.3438,544.1695 247.75,543.9039 Q247.1563,543.6227 246.5313,543.6227 Q245.1875,543.6227 244.5,544.7008 Q243.8125,545.7633 243.8125,547.857 Q243.8125,549.9508 244.5,551.0289 Q245.1875,552.0914 246.5313,552.0914 Q247.1563,552.0914 247.75,551.8258 Q248.3438,551.5445 248.9688,550.9664 L248.9688,553.6852 Z " fill="#000000"/><text fill="#D9B8FF" font-family="Helvetica" font-size="17" lengthAdjust="spacing" textLength="37" x="265" y="553.9298">type</text></g><!--reverse link instance_type to azure_compute_virtual_machine_size--><g id="link_instance_type_azure_compute_virtual_machine_size"><path codeLine="44" d="M248.3512,744.9835 C232.5912,775.5035 210.21,818.84 194.43,849.4 " fill="none" id="instance_type-backto-azure_compute_virtual_machine_size" style="stroke:#FFAF37;stroke-width:2.0;"/><polygon fill="none" points="256.61,728.99,243.0201,742.2306,253.6824,747.7364,256.61,728.99" style="stroke:#FFAF37;stroke-width:2.0;"/></g><!--reverse link microsoft_resource to azure_compute_virtual_machine_size--><g id="link_microsoft_resource_azure_compute_virtual_machine_size"><path codeLine="45" d="M126.8619,325.6812 C129.7319,358.4212 133.5,409.05 133.5,467.15 C133.5,467.15 133.5,467.15 133.5,709.84 C133.5,762.53 159.28,820.56 174.18,849.7 " fill="none" id="microsoft_resource-backto-azure_compute_virtual_machine_size" style="stroke:#FFAF37;stroke-width:2.0;"/><polygon fill="none" points="125.29,307.75,120.8848,326.2052,132.8389,325.1573,125.29,307.75" style="stroke:#FFAF37;stroke-width:2.0;"/></g><!--reverse link type to instance_type--><g id="link_type_instance_type"><path codeLine="46" d="M269.566,586.1943 C268.796,616.7143 267.75,658.05 266.98,688.61 " fill="none" id="type-backto-instance_type" style="stroke:#FFAF37;stroke-width:2.0;"/><polygon fill="none" points="270.02,568.2,263.5679,586.0429,275.5641,586.3456,270.02,568.2" style="stroke:#FFAF37;stroke-width:2.0;"/></g><!--reverse link resource to microsoft_resource--><g id="link_resource_microsoft_resource"><path codeLine="47" d="M153.5148,64.7372 C147.0548,112.4472 132.64,218.97 126.12,267.08 " fill="none" id="resource-backto-microsoft_resource" style="stroke:#FFAF37;stroke-width:2.0;"/><polygon fill="none" points="155.93,46.9,147.5691,63.9322,159.4606,65.5423,155.93,46.9" style="stroke:#FFAF37;stroke-width:2.0;"/></g><!--reverse link resource to phantom_resource--><g id="link_resource_phantom_resource"><path codeLine="48" d="M183.2881,61.5306 C205.7781,92.0506 238.82,136.9 261.34,167.46 " fill="none" id="resource-backto-phantom_resource" style="stroke:#FFAF37;stroke-width:2.0;"/><polygon fill="none" points="172.61,47.04,178.4579,65.09,188.1183,57.9713,172.61,47.04" style="stroke:#FFAF37;stroke-width:2.0;"/></g><!--reverse link phantom_resource to quota--><g id="link_phantom_resource_quota"><path codeLine="49" d="M275.5,225.98 C275.5,263.76 275.5,329.04 275.5,366.88 " fill="none" id="phantom_resource-backto-quota" style="stroke:#FFAF37;stroke-width:2.0;"/><polygon fill="none" points="275.5,207.98,269.5,225.98,281.5,225.98,275.5,207.98" style="stroke:#FFAF37;stroke-width:2.0;"/></g><!--reverse link quota to type--><g id="link_quota_type"><path codeLine="50" d="M274.3341,425.4011 C273.3741,455.9211 272.07,497.26 271.11,527.83 " fill="none" id="quota-backto-type" style="stroke:#FFAF37;stroke-width:2.0;"/><polygon fill="none" points="274.9,407.41,268.3371,425.2125,280.3311,425.5897,274.9,407.41" style="stroke:#FFAF37;stroke-width:2.0;"/></g><!--SRC=[ZP5FJm8n4CNl-ocQS2O1YGA95oKnUY56l6-6TiesRDjrseM0-jrbMTHkbt_NUR_EU_EQAO4CTU4tJAEU8xd4BPKfW42p1oAxdjZS4kj82N8mZCKdQ_n5O0eQsJFcA_IAGqoyPuel3Jh7RWBf4VXoGROqebxl2OpRIMXyG4roSEx1UrBpqcCGHepd8obZCbxQ6OZ-y0vRc2M1T41wlPxeZsFaejNPk_-8cTeYwuUbJQt7LioMnPuwcx8YWf2jGt_ranbVGGXb5kmscBtLcSWWDUQp38HTLxI4t8KspYEXzPi29wshS3mISdWKVZa59xogZi6s94ovrSNkszEL8bz2dchWcJAOkghLpoJvFj3AE0-6Orgj3WMjE5bdfKy9dIs9DzGY0-EjFgfzbDP3E3W6_Tir4zn_TRlTAsv8ZkIx-ctWr71FebLjZvY8UqXQnTJSlfEaRgQUxFr-0000]--></g></svg>

<svg xmlns="http://www.w3.org/2000/svg" width="381" height="895" viewBox="0 0 381 895"><rect width="355" height="39.789" x="7" y="849.73" fill="#3D176E" rx="2.5" ry="2.5" style="stroke:#000d19;stroke-width:.5"/><circle cx="22" cy="869.625" r="11" fill="#ADD1B2" style="stroke:#181818;stroke-width:1"/><path d="M24.969 875.265q-.578.297-1.219.438-.64.156-1.344.156-2.5 0-3.828-1.64-1.312-1.657-1.312-4.782t1.312-4.781Q19.906 863 22.406 863q.703 0 1.344.156.656.156 1.219.453v2.719q-.625-.578-1.219-.844-.594-.281-1.219-.281-1.343 0-2.031 1.078-.687 1.062-.687 3.156t.687 3.172q.688 1.062 2.031 1.062.625 0 1.219-.265.594-.281 1.219-.86z"/><text x="41" y="875.51" fill="#D9B8FF" font-family="Helvetica" font-size="17" textLength="313">azure_compute_virtual_machine_size</text><rect width="158" height="39.789" x="187.5" y="688.94" fill="#3D176E" rx="2.5" ry="2.5" style="stroke:#000d19;stroke-width:.5"/><circle cx="202.5" cy="708.835" r="11" fill="#ADD1B2" style="stroke:#181818;stroke-width:1"/><path d="M205.469 714.475q-.578.297-1.219.438-.64.156-1.344.156-2.5 0-3.828-1.64-1.312-1.657-1.312-4.782t1.312-4.781q1.328-1.656 3.828-1.656.703 0 1.344.156.656.156 1.219.453v2.719q-.625-.578-1.219-.844-.594-.281-1.219-.281-1.344 0-2.031 1.078-.687 1.062-.687 3.156t.687 3.172q.688 1.062 2.031 1.062.625 0 1.219-.265.594-.281 1.219-.86z"/><text x="221.5" y="714.72" fill="#D9B8FF" font-family="Helvetica" font-size="17" textLength="116">instance_type</text><rect width="200" height="39.789" x="23.5" y="267.57" fill="#3D176E" rx="2.5" ry="2.5" style="stroke:#000d19;stroke-width:.5"/><circle cx="38.5" cy="287.464" r="11" fill="#ADD1B2" style="stroke:#181818;stroke-width:1"/><path d="M41.469 293.105q-.578.297-1.219.438-.64.156-1.344.156-2.5 0-3.828-1.64-1.312-1.657-1.312-4.782t1.312-4.781q1.328-1.656 3.828-1.656.703 0 1.344.156.656.156 1.219.453v2.719q-.625-.579-1.219-.844-.594-.281-1.219-.281-1.343 0-2.031 1.078-.687 1.062-.687 3.156t.687 3.172q.688 1.062 2.031 1.062.625 0 1.219-.265.594-.281 1.219-.86z"/><text x="57.5" y="293.35" fill="#D9B8FF" font-family="Helvetica" font-size="17" textLength="158">microsoft_resource</text><rect width="198" height="39.789" x="176.5" y="167.79" fill="#3D176E" rx="2.5" ry="2.5" style="stroke:#000d19;stroke-width:.5"/><circle cx="191.5" cy="187.685" r="11" fill="#ADD1B2" style="stroke:#181818;stroke-width:1"/><path d="M194.469 193.325q-.578.297-1.219.438-.64.156-1.344.156-2.5 0-3.828-1.64-1.312-1.657-1.312-4.782t1.312-4.781q1.328-1.656 3.828-1.656.703 0 1.344.156.656.156 1.219.453v2.719q-.625-.578-1.219-.844-.594-.281-1.219-.281-1.344 0-2.031 1.078-.687 1.062-.687 3.156t.687 3.172q.688 1.062 2.031 1.062.625 0 1.219-.265.594-.281 1.219-.86z"/><text x="210.5" y="193.57" fill="#D9B8FF" font-family="Helvetica" font-size="17" textLength="156">phantom_resource</text><rect width="90" height="39.789" x="230.5" y="367.36" fill="#3D176E" rx="2.5" ry="2.5" style="stroke:#000d19;stroke-width:.5"/><circle cx="245.5" cy="387.255" r="11" fill="#ADD1B2" style="stroke:#181818;stroke-width:1"/><path d="M248.469 392.895q-.578.297-1.219.438-.64.156-1.344.156-2.5 0-3.828-1.64-1.312-1.657-1.312-4.782t1.312-4.781q1.328-1.656 3.828-1.656.703 0 1.344.156.656.156 1.219.453v2.719q-.625-.579-1.219-.844-.594-.281-1.219-.281-1.344 0-2.031 1.078-.687 1.062-.687 3.156t.687 3.172q.688 1.062 2.031 1.062.625 0 1.219-.265.594-.281 1.219-.86z"/><text x="264.5" y="393.14" fill="#D9B8FF" font-family="Helvetica" font-size="17" textLength="48">quota</text><rect width="113" height="39.789" x="102" y="7" fill="#3D176E" rx="2.5" ry="2.5" style="stroke:#000d19;stroke-width:.5"/><circle cx="117" cy="26.895" r="11" fill="#ADD1B2" style="stroke:#181818;stroke-width:1"/><path d="M119.969 32.535q-.578.297-1.219.438-.64.156-1.344.156-2.5 0-3.828-1.64-1.312-1.657-1.312-4.782t1.312-4.781q1.328-1.656 3.828-1.656.703 0 1.344.156.656.156 1.219.453v2.719q-.625-.578-1.219-.844-.594-.281-1.219-.281-1.344 0-2.031 1.078-.687 1.062-.687 3.156t.687 3.172q.688 1.062 2.031 1.062.625 0 1.219-.265.594-.281 1.219-.86z"/><text x="136" y="32.78" fill="#D9B8FF" font-family="Helvetica" font-size="17" textLength="71">resource</text><rect width="79" height="39.789" x="231" y="528.15" fill="#3D176E" rx="2.5" ry="2.5" style="stroke:#000d19;stroke-width:.5"/><circle cx="246" cy="548.044" r="11" fill="#ADD1B2" style="stroke:#181818;stroke-width:1"/><path d="M248.969 553.685q-.578.297-1.219.438-.64.156-1.344.156-2.5 0-3.828-1.64-1.312-1.657-1.312-4.782t1.312-4.781q1.328-1.657 3.828-1.657.703 0 1.344.157.656.156 1.219.453v2.719q-.625-.579-1.219-.844-.594-.281-1.219-.281-1.344 0-2.031 1.078-.687 1.062-.687 3.156t.687 3.172q.688 1.062 2.031 1.062.625 0 1.219-.265.594-.282 1.219-.86z"/><text x="265" y="553.93" fill="#D9B8FF" font-family="Helvetica" font-size="17" textLength="37">type</text><path fill="none" d="M248.351 744.984c-15.76 30.52-38.141 73.856-53.921 104.416m62.18-120.41-13.59 13.24 10.662 5.506z" style="stroke:#ffaf37;stroke-width:2"/><g fill="none"><path d="M126.862 325.681c2.87 32.74 6.638 83.369 6.638 141.469v242.69c0 52.69 25.78 110.72 40.68 139.86" style="stroke:#ffaf37;stroke-width:2"/><path d="m125.29 307.75-4.405 18.455 11.954-1.048z" style="stroke:#ffaf37;stroke-width:2"/></g><g fill="none"><path d="M269.566 586.194c-.77 30.52-1.816 71.856-2.586 102.416" style="stroke:#ffaf37;stroke-width:2"/><path d="m270.02 568.2-6.452 17.843 11.996.303z" style="stroke:#ffaf37;stroke-width:2"/></g><g fill="none"><path d="M153.515 64.737c-6.46 47.71-20.875 154.233-27.395 202.343" style="stroke:#ffaf37;stroke-width:2"/><path d="m155.93 46.9-8.36 17.032 11.89 1.61z" style="stroke:#ffaf37;stroke-width:2"/></g><g fill="none"><path d="M183.288 61.53c22.49 30.52 55.532 75.37 78.052 105.93" style="stroke:#ffaf37;stroke-width:2"/><path d="m172.61 47.04 5.848 18.05 9.66-7.119z" style="stroke:#ffaf37;stroke-width:2"/></g><path fill="none" d="M275.5 225.98v140.9m0-158.9-6 18h12z" style="stroke:#ffaf37;stroke-width:2"/><g fill="none"><path d="M274.334 425.401c-.96 30.52-2.264 71.859-3.224 102.429" style="stroke:#ffaf37;stroke-width:2"/><path d="m274.9 407.41-6.563 17.802 11.994.378z" style="stroke:#ffaf37;stroke-width:2"/></g></svg>
